svgs/fandango.svg

<svg width="192" height="192" viewBox="0 0 192 192" fill="none" xmlns="http://www.w3.org/2000/svg">
<path d="M101.437 71.3109L77.4731 79.9822L85.1099 100.841M85.1099 100.841L92.7466 121.701M85.1099 100.841L106.677 93.0373M166.104 121.929C169.118 120.838 170.753 117.347 169.66 114.343L160.641 89.7093C154.53 90.2833 146.839 86.6464 143.93 78.6577C141.021 70.669 144.529 62.9799 149.586 59.513L140.567 34.8792C139.474 31.8754 135.953 30.2496 132.939 31.34L25.8999 70.0716C22.8864 71.162 21.2403 74.6575 22.3448 77.6573L31.3634 102.291C37.4789 101.715 45.1374 105.364 48.0742 113.343C51.0109 121.321 47.4705 129.022 42.4185 132.487L51.4372 157.121C52.5416 160.121 56.0517 161.751 59.0652 160.66L166.104 121.929Z" stroke="#000" stroke-width="12" stroke-linecap="round" stroke-linejoin="round"/>
</svg>

<svg xmlns="http://www.w3.org/2000/svg" width="192" height="192" fill="none"><path stroke="#000" stroke-linecap="round" stroke-linejoin="round" stroke-width="12" d="m101.437 71.31-23.964 8.672 7.637 20.859m0 0 7.637 20.86m-7.637-20.86 21.567-7.804m59.427 28.892c3.014-1.091 4.649-4.582 3.556-7.586l-9.019-24.634c-6.111.574-13.802-3.063-16.711-11.051-2.909-7.989.599-15.678 5.656-19.145l-9.019-24.634c-1.093-3.004-4.614-4.63-7.628-3.539L25.899 70.072c-3.013 1.09-4.659 4.585-3.554 7.585l9.018 24.634c6.116-.576 13.774 3.073 16.711 11.052s-.603 15.679-5.655 19.144l9.018 24.634c1.105 3 4.615 4.63 7.628 3.539z"/></svg>
